src/assets/icons/kiva-card.svg

<svg xmlns="http://www.w3.org/2000/svg" width="243" height="153"><g fill-rule="evenodd"><path d="M22.376 30.861c-2.091-3.823-1.947-7.951.405-11.624 2.189-3.416 5.582-5.297 9.557-5.297 9.293 0 21.025 10.518 27.389 20.212 6.365-9.694 18.096-20.212 27.388-20.212 3.975 0 7.368 1.882 9.556 5.298 2.353 3.672 2.497 7.8.405 11.624-1.935 3.538-5.775 6.639-10.386 9.156H243V9.001a9 9 0 00-9-9H9a9 9 0 00-9 9v31.017h32.764c-4.612-2.517-8.452-5.619-10.388-9.157"/><path d="M90.058 27.023c.695-1.272.661-2.246-.123-3.47-.734-1.146-1.551-1.613-2.82-1.613-5.831 0-15.59 8.751-20.766 16.655 9.242-1.459 20.917-6.467 23.709-11.572m-57.72-5.083c-1.27 0-2.087.467-2.82 1.613-.785 1.224-.819 2.197-.123 3.469 2.792 5.104 14.468 10.113 23.711 11.573C47.93 30.691 38.171 21.94 32.338 21.94M86.54 64.896c1.943.235 2.812-.457 3.524-1.568a4 4 0 016.737 4.315c-2.213 3.454-5.568 5.296-9.563 5.296-.542 0-1.096-.033-1.661-.102-9.049-1.098-19.903-11.241-25.85-20.349-5.947 9.108-16.802 19.252-25.851 20.349-.564.069-1.118.102-1.66.102-3.995 0-7.349-1.842-9.562-5.296a4 4 0 016.737-4.315c.712 1.111 1.584 1.802 3.522 1.568 6.076-.737 15.337-9.288 20.229-16.878H0V144a9 9 0 009 9h225a9 9 0 009-9V48.018H66.312c4.892 7.589 14.152 16.14 20.228 16.878zm84.425 62.505h14.585V58.639h-14.585v68.762zm45.165-48.206h2.028c0 3.344-5.469 22.889-28.864 22.889h-2.023c0-3.344 5.465-22.889 28.859-22.889zm-26.836 24.712c25.216 0 29.27 19.95 29.27 23.494h-2.03c-25.212 0-29.263-19.95-29.263-23.494h2.023z"/></g></svg>

<svg xmlns="http://www.w3.org/2000/svg" width="243" height="153" viewBox="0 0 243 153">
  <g fill-rule="evenodd">
    <path d="M22.376,30.861 C20.285,27.038 20.429,22.91 22.781,19.237 C24.97,15.821 28.363,13.94 32.338,13.94 C41.631,13.94 53.363,24.458 59.727,34.152 C66.092,24.458 77.823,13.94 87.115,13.94 C91.09,13.94 94.483,15.822 96.671,19.238 C99.024,22.91 99.168,27.038 97.076,30.862 C95.141,34.4 91.301,37.501 86.69,40.018 L243,40.018 L243,9.001 C243,4.03 238.971,0.001 234,0.001 L9,0.001 C4.029,0.001 0,4.03 0,9.001 L0,40.018 L32.764,40.018 C28.152,37.501 24.312,34.399 22.376,30.861"/>
    <path d="M90.058 27.023C90.753 25.751 90.719 24.777 89.935 23.553 89.201 22.407 88.384 21.94 87.115 21.94 81.284 21.94 71.525 30.691 66.349 38.595 75.591 37.136 87.266 32.128 90.058 27.023M32.338 21.94C31.068 21.94 30.251 22.407 29.518 23.553 28.733 24.777 28.699 25.75 29.395 27.022 32.187 32.126 43.863 37.135 53.106 38.595 47.93 30.691 38.171 21.94 32.338 21.94M86.54 64.896C88.483 65.131 89.352 64.439 90.064 63.328 91.257 61.467 93.731 60.927 95.59 62.117 97.451 63.309 97.992 65.783 96.801 67.643 94.588 71.097 91.233 72.939 87.238 72.939 86.696 72.939 86.142 72.906 85.577 72.837 76.528 71.739 65.674 61.596 59.727 52.488 53.78 61.596 42.925 71.74 33.876 72.837 33.312 72.906 32.758 72.939 32.216 72.939 28.221 72.939 24.867 71.097 22.654 67.643 21.463 65.783 22.004 63.309 23.865 62.117 25.727 60.926 28.199 61.468 29.391 63.328 30.103 64.439 30.975 65.13 32.913 64.896 38.989 64.159 48.25 55.608 53.142 48.018L0 48.018 0 144C0 148.971 4.029 153 9 153L234 153C238.971 153 243 148.971 243 144L243 48.018 66.312 48.018C71.204 55.607 80.464 64.158 86.54 64.896zM170.965 127.401L185.55 127.401 185.55 58.639 170.965 58.639 170.965 127.401zM216.13 79.195L218.158 79.195C218.158 82.539 212.689 102.084 189.294 102.084L187.271 102.084C187.271 98.74 192.736 79.195 216.13 79.195zM189.294 103.907C214.51 103.907 218.564 123.857 218.564 127.401L216.534 127.401C191.322 127.401 187.271 107.451 187.271 103.907L189.294 103.907z"/>
  </g>
</svg>
